X: 1
T:The Circassian Circle  "CYMRU"
M:C|
L:1/8
Q:80
C:P.M. J.G.Slattery
S:Hornpipe
K:HP
|: {g}A|
{Gdc}d{g}f3/4d/4{Gdc}d{g}f|
{gAGAG}A{g}f3/4e/4{Gdc}d{g}f|  !
{gef}eg3/4f/4{gef}e{gf}g|
{a}e/2f/2{g}e/2c/2{g}c/2a/2g/2e/2| |
{Gdc}d{g}f3/4d/4{Gdc}d{g}f|  !
{gAGAG}A{g}f3/4e/4{Gdc}d{g}f|
{g}e/2f/2{a}g/2e/2{g}c/2{d}A/2{g}B/2c/2|
{Gdc}d{g}f{Gdc}d:| |:  !
a|
{fg}fa3/4g/4{afg}fa|
{AGAG}Aa3/4g/4{afg}fa|
{ef}eg3/4f/4{gef}e{gf}g|  !
{a}e/2f/2{g}e/2c/2{g}c/2a/2g/2e/2| |
{gfg}fa3/4g/4{afg}fa|
{AGAG}Aa3/4g/4{afg}fa|  !
e/2f/2{a}g/2e/2{g}c/2{d}A/2{g}B/2c/2|
{Gdc}d{g}f{Gdc}d:|
